X:4385
T:Morrison's jig
O:england
R:Jig
M:6/8
L:1/8
K:G
E2E BEB|EBE AFD|~E3 BEB|d^cB AFD|
E2E ~B3|EBE AFD|GAG FGA|1 dAG FED:|2 dAG FGA||
Bee fee|aee fed|Bee fee|fag fed|
Bee fee|aee fed|gfe d2A|BAG FGA|
Bee fee|aee fed|Bee fee|faf def|
g3 gfe|def g2d|ed^c d2A|BAG FED||
E6||


